X:1
T:Infernally Hard Galop
T:Infernally Hard Galop
T:Jacques Offenbach arr. by Austin Kitchell 
T:© 2019 Austin Kitchell
T:© 2019 Austin Kitchell
T:© 2019 Austin Kitchell
T:© 2019 Austin Kitchell
T:© 2019 Austin Kitchell
T:© 2019 Austin Kitchell
T:© 2019 Austin Kitchell
C:Jacques Offenbach arr. by Austin Kitchell
Z:© 2019 Austin Kitchell
%%score { ( 1 4 ) | ( 2 3 ) }
L:1/8
Q:1/4=148
M:2/4
K:D
V:1 treble nm="Piano" snm="Pno."
V:4 treble 
V:2 treble 
V:3 treble 
V:1
"^Allegro"!p!"_sempre leggierissimo" (f/=f/ | .e) z z2 |!pp!!8va(! .[e'd''] z .[e'^g'] z | %3
 .[e'a'].[a'e'']!8va)! z2 | z2 z!p! (f/=f/ | .e) z z2 |!pp!!8va(! .[e'd''] z .[e'^g'] z | %7
 .[e'a'] z z2 |{/b} .a z .a'' z |{/b'} .a' z .a'' z |{/b} .a z .a'' z |{/b'} .a' z .a'' z | %12
!<(! z4 |{/b} .a z{/b} .a z |{/b'} .a' z{/b'} .a' z | %15
{/b''} .[a'a''] z{/b''} .[a'a'']!<)!!f! z!8va)! |: %16
!mp!"^If you think this is hard, you ain't seen nuttin' yet!" .A.[Ace].[Ace].[Acf] | %17
{/f} .[Ae].[Ad].[Ad].[Adf] | .[dg].[dgb].[dgd'].[dgb] | .[dgb].[dfa] [dfa] z | %20
 .[cb].[Ac].[Ac].[cb] | .[da].[Ad] .[Ad].[Af] |1!<(!{/g} .[^Gf].[Ge]{/g}.[Gf].[Ge]!<)! | %23
!f!!>(!{/g} .[Af].[Ae]{/g}.[Af].[Ae]!>)! :|2{/g} .[Af].[Ae]{/g} .[Af].[Ae] | %25
{/f} .[Ae].[Ad] .[Ad] z |:!f! !>![ff']2 !>![dd']2 | !>![Bb]2 !>![Aa]2 | %28
!mp! .[Aa].[Ace].[Acf].[Acg] | .[Adf].[Ae] .[Ad] z |!f! !>![ff']2 !>![dd']2 | !>![Bb]2 !>![Aa]2 | %32
!mp! .[e^g].[ea].[e=gb].[egc'] |1 .[fae'].[fad'] .[fad'] z :|2!<(! ([dfd'].a) ([cgc'].a) || %35
 ([dfd'].a) ([cgc'].a) | ([dfd'].a) ([cgc'].a) | ([dfd'].a) ([cgc'].a)!<)! | %38
!f! .[dfd']>[dfd'] .[dfd']>[dfd'] | .[dfd']>[dfd'] .[dfd']>[dfd'] | .[dfd']>[dfd'] .[dfd']>[dfd'] | %41
 .[dfd'] z !>![dfad']2 |:[K:G]!ff! !>![Gg]4 | .[Aa].[cc'] .[Bb].[Aa] | [dd']2 [dd']2 | %45
 .[dd'].[ee'] .[Bb].[cc'] | [Aa]2 [Aa]2 | .[Aa].[cc'] .[Bb].[Aa] | .[Gg].[gg'] .[ff'].[ee'] | %49
 .[dd'].[cc'] .[Bb].[Aa] | !>![Gg]4 | .[Aa].[cc'] .[Bb].[Aa] | [dd']2 [dd']2 | %53
 .[dd'].[ee'] .[Bb].[cc'] | [Aa]2 [Aa]2 | .[Aa].[cc'] .[Bb].[Aa] | .[Gg].[dd'] .[Aa].[Bb] |1 %57
 .[Gg] z !>![DFAd]2 :|2 .[Gg] z !>![GBdg] z |:[K:D]!mp! .A.[Ace].[Ace].[Acf] | %60
{/f} .[Ae].[Ad].[Ad].[Adf] | .[dg].[dgb].[dgd'].[dgb] | .[dgb].[dfa] [dfa] z |1 %63
 .[cb].[Ac].[Ac].[cb] | .[da].[Ad] .[Ad].[Af] |!<(!{/g} .[^Gf].[Ge]{/g}.[Gf].[Ge]!<)! | %66
!f!!>(!{/g} .[Af].[Ae]{/g}.[Af].[Ae]!>)! :|2!mp!!<(! [ceb][cea][cea][cea] | [c^eb][cea][cea][cea] | %69
 [cfb][cfa][cfa][cfa] | [cgb][cga][cga][cga] || [ceb][cea][cea][cea] | [c^eb][cea][cea][cea] | %73
 [cfb][cfa][cfa][cfa] |{/c'} .[cgb].[cga]{/c'} .[cgb].[cga] |{/c'} .[cgb].[cga]{/c'} .[cgb].[cga] | %76
{/c'} .[cgb].[cga]{/c'} .[cgb].[cga]!<)! |:!ff! !>![Dd]4 | .[Ee].[Gg] .[Ff].[Ee] | [Aa]2 [Aa]2 | %80
 .[Aa].[Bb] .[Ff].[Gg] | [Ee]2 [Ee]2 | .[Ee].[Gg] .[Ff].[Ee] | .[Dd].[dd'] .[cc'].[Bb] | %84
 .[Aa].[Gg] .[Ff].[Ee] | !>![Dd]4 | .[Ee].[Gg] .[Ff].[Ee] | [Aa]2 [Aa]2 | .[Aa].[Bb] .[Ff].[Gg] | %89
 [Ee]2 [Ee]2 | .[Ee].[Gg] .[Ff].[Ee] | .[Dd].[Aa] .[Ee].[Ff] |1 .[Dd] z !>![Aa]2 :|2 %93
 .[DFAd] z z2 ||!pp!!8va(! .a'' z z2 | z4 | .a'' z z2 | z4 | .a'' z z2 |!<(! z4 | %100
{/b} .a z{/b} .a z |{/b'} .a' z{/b'} .a' z |{/b''} .[a'a''] z{/b''} .[a'a'']!<)!!f! z!8va)! |: %103
!mp!"^Now it's the real thing! Good luck! (evil grin)" !^!c/A/!^![ce]/A/ !^![ce]/A/!^![cf]/A/ | %104
 !^![ce]/A/!^!d/A/ !^!d/A/!^![df]/A/ | !^![dg]/B/!^![gb]/d/ !^![bd']/d/!^![gb]/d/ | %106
 !^![gb]/d/!^![fa]/d/ .[fa] z | !^![cb]/A/!^!c/A/ !^!c/A/!^![cb]/A/ | %108
 !^![da]/A/!^!d/A/ !^!d/A/!^![df]/A/ |1!<(! !^![df]/^G/!^![de]/G/ !^![df]/G/!^![de]/G/!<)! | %110
!>(! !^![cf]/A/!^![ce]/A/ !^![cf]/A/!^![ce]/A/!>)! :|2 !^![cf]/A/!^![ce]/A/ !^![cf]/A/!^![ce]/A/ | %112
 !^![ce]/A/!^!d/A/ .d z |:!f! !^!f/!^!f'/!^!f/!^!f'/ !^!d/!^!d'/!^!d/!^!d'/ | %114
 !^!B/!^!b/!^!B/!^!b/ !^!A/!^!a/!^!A/!^!a/ |!mp! !^!a/A/!^![ce]/A/ !^![cf]/A/!^![cg]/A/ | %116
 !^![df]/A/!^!e/A/ .d z |!f! !^!f/!^!f'/!^!f/!^!f'/ !^!d/!^!d'/!^!d/!^!d'/ | %118
 !^!B/!^!b/!^!B/!^!b/ !^!A/!^!a/!^!A/!^!a/ |!mp! !^![e^g]/c/!^![ea]/c/ !^![=gb]/e/!^![gc']/e/ |1 %120
 !^![fe']/d/!^![fd']/d/ .[fad'] z :|2!<(! !^![fd']/d/!^![fa]/d/ !^![gc']/e/!^![ga]/e/ || %122
 !^![fd']/d/!^![fa]/d/ !^![gc']/e/!^![ga]/e/ | !^![fd']/d/!^![fa]/d/ !^![gc']/e/!^![ga]/e/ | %124
 !^![fd']/d/!^![fa]/d/ !^![gc']/e/!^![ga]/e/!<)! | %125
!f! !^![dd']/f/a/!^![dd']/ !^![dd']/f/a/!^![dd']/ | !^![dd']/f/a/!^![dd']/ !^![dd']/f/a/!^![dd']/ | %127
 !^![dd']/f/a/!^![dd']/ !^![dd']/f/a/!^![dd']/ | .[dd']!8va(! !-(!d !-)!!>!d''2!8va)! |: %129
[K:G]!ff! !>![Gg]4 | .[Aa].[cc'] .[Bb].[Aa] | [dd']2 [dd']2 | .[dd'].[ee'] .[Bb].[cc'] | %133
 [Aa]2 [Aa]2 | .[Aa].[cc'] .[Bb].[Aa] | .[Gg]g/g'/ f/f'/e/e'/ | d/d'/c/c'/ B/b/A/a/ | !>![Gg]4 | %138
 .[Aa].[cc'] .[Bb].[Aa] | [dd']2 [dd']2 | .[dd'].[ee'] .[Bb].[cc'] | [Aa]2 [Aa]2 | %142
 .[Aa].[cc'] .[Bb].[Aa] | .[Gg]d/d'/ A/a/B/b/ |1 .[Gg]!8va(! !-(!d !-)!!>!d''2!8va)! :|2 %145
 .[Gg]!8va(! !-(!g !-)!!>!g''2!8va)! |:[K:D]!mp! !^!c/A/!^![ce]/A/ !^![ce]/A/!^![cf]/A/ | %147
 !^![ce]/A/!^!d/A/ !^!d/A/!^![df]/A/ | !^![dg]/B/!^![gb]/d/ !^![bd']/d/!^![gb]/d/ | %149
 !^![gb]/d/!^![fa]/d/ .[fa] z |1 !^![cb]/A/!^!c/A/ !^!c/A/!^![cb]/A/ | %151
 !^![da]/A/!^!d/A/ !^!d/A/!^![df]/A/ |!<(! !^![df]/^G/!^![de]/G/ !^![df]/G/!^![de]/G/!<)! | %153
!>(! !^![cf]/A/!^![ce]/A/ !^![cf]/A/!^![ce]/A/!>)! :|!mp!!<(! b/A/a/a/ a'/a/a/A/ | %155
 b/A/a/a/ a'/a/a/A/ | b/A/a/a/ a'/a/a/A/ | b/A/a/a/ a'/a/a/A/ | b/A/a/a/ a'/a/a/A/ | %159
 b/A/a/a/ a'/a/a/A/ | b/A/a/a/ a'/a/a/A/ | !^![gb]/A/!^![ga]/A/ !^![gb]/A/!^![ga]/A/ | %162
 !^![gb]/A/!^![ga]/A/ !^![gb]/A/!^![ga]/A/ | !^![gb]/A/!^![ga]/A/ !^![gb]/A/!^![ga]/A/!<)! |: %164
!ff! !>![Dd]4 | .[Ee].[Gg] .[Ff].[Ee] | [Aa]2 [Aa]2 | .[Aa].[Bb] .[Ff].[Gg] | [Ee]2 [Ee]2 | %169
 .[Ee].[Gg] .[Ff].[Ee] | .[Dd]d/d'/ c/c'/B/b/ | A/a/G/g/ F/f/E/e/ | !>![Dd]4 | %173
 .[Ee].[Gg] .[Ff].[Ee] | [Aa]2 [Aa]2 | .[Aa].[Bb] .[Ff].[Gg] | [Ee]2 [Ee]2 | %177
 .[Ee].[Gg] .[Ff].[Ee] |1 .[Dd]A/a/ E/e/F/f/ | .[Dd]!8va(! !-(!a !-)!!>!a''2!8va)! :|2 %180
!ff! !>![Dd]2 !>![dd']2 || !>![ee']2 !>![ff']2 | a/a'/g/g'/ c/c'/B/b/ | A/a/g/g'/ f/f'/e/e'/ | %184
 !>![dd']2 !>![dd']2 | !>![ee']2 !>![ff']2 | a/a'/g/g'/ c/c'/B/b/ | A/a/g/g'/ f/f'/e/e'/ | %188
 !>![dd']/a/^g/a/ b/a/g/a/ | b/a/^g/a/ b/a/g/a/ | b/a/^g/a/ b/a/g/a/ | b/a/^g/a/ b/a/g/a/ | %192
 !>![dd']/a/^g/a/ b/a/g/a/ | b/a/^g/a/ b/a/g/a/ | b/a/^g/a/ b/a/g/a/ | b/a/^g/a/ b/a/g/a/ | %196
 !//-![fa]2 f'2 | !//-![fa]2 f'2 | !//-![fa]2 f'2 | !//-![fa]2 f'2 | !//-![fa]2 f'2 | %201
 !//-![fa]2 f'2 | !//-![fa]2 f'2 | !//-![fa]2 f'2 | %204
 !^![ff']/a/d'/!^![ff']/ !^![ff']/a/d'/!^![ff']/ | %205
 !^![ff']/a/d'/!^![ff']/ !^![ff']/a/d'/!^![ff']/ | !>![fad'f'] z z2 | !>![fad'f'] z z2 | %208
 !>![dfad'] z z2 | !>![fad'f'] z z2 | !///-!d2 d'2 | !///-!d2 d'2 | !>![dfad'] z z2 |] %213
V:2
 (F/=F/ | .E) z z2 | .[eb] z .[^gd'] z | .[Aa].[Aa] z2 | z2 z (F/=F/ | .E) z z2 | %6
 .[eb] z .[^gd'] z | .[Aa] z z2 |{/B} .A z z2 |{/b} .a z z2 |{/B} .A z z2 |{/b} .a z z2 | %12
{/B} .A z{/B} .A z |{/B} .A z{/B} .A z | .[Aa] z .[Aa] z | .[Aa] z .[Aa] z |: %16
[K:bass] .A,,.[A,CG].[A,CG].[A,CG] | .D,.[A,DF].[A,DF].[A,DF] | .G,,.[B,DG].[B,DG].[B,DG] | %19
 .D,.[A,DF].[A,DF].[A,DF] | .A,,.[A,CG].[A,CG].[A,CG] | .D,.[A,DF].[A,DF].[A,DF] |1 %22
 .E,.[B,DE].[B,DE].[B,DE] | .A,,.[A,CE].[A,CE].[A,CE] :|2 .A,,.[A,CG] .A,,.[A,CG] | %25
 .D,.[A,DF] .[A,DF] z |: !>![F,F]2 !>![D,D]2 | !>![B,,B,]2 !>![A,,A,]2 | .A,.[CG].[CG].[CG] | %29
 .D,.[A,DF] .[A,DF] z | !>![F,F]2 !>![D,D]2 | !>![B,,B,]2 !>![A,,A,]2 | .A,.[CG].[CG].[CG] |1 %33
 .D,.[A,DF] .[A,DF] z :|2 (D,.D) (A,,.A,) || (D,.D) (A,,.A,) | (D,.D) (A,,.A,) | (D,.D) (A,,.A,) | %38
 .[D,D]>[D,D] .[D,D]>[D,D] | .[D,D]>[D,D] .[D,D]>[D,D] | .[D,D]>[D,D] .[D,D]>[D,D] | %41
 .[D,D] z !>![D,,D,]2 |:[K:G] .[G,,G,].[B,D] .D,.[B,D] | .[A,,A,].[CD] .D,.[CD] | %44
 .[G,,G,].[B,D] .D,.[B,D] | .[G,,G,].[B,D] .D,.[B,D] | .[A,,A,].[CD] .D,.[CD] | %47
 .[F,,F,].[CD] .D,.[CD] | .[G,,G,].[B,D] .D,.[B,D] | .[D,,D,].[D,,D,] .[E,,E,].[F,,F,] | %50
 .[G,,G,].[B,D] .D,.[B,D] | .[A,,A,].[CD] .D,.[CD] | .[G,,G,].[B,D] .D,.[B,D] | %53
 .[G,,G,].[B,D] .D,.[B,D] | .[A,,A,].[CD] .D,.[CD] | .[F,,F,].[CD] .D,.[CD] | %56
 .[G,,G,].[B,D] .[D,,D,].[A,CD] |1 .[G,B,D] z !>![D,,D,]2 :|2 .[G,B,D] z !>![G,,,G,,] z |: %59
[K:D] .A,,.[A,CG].[A,CG].[A,CG] | .D,.[A,DF].[A,DF].[A,DF] | .G,,.[B,DG].[B,DG].[B,DG] | %62
 .D,.[A,DF].[A,DF].[A,DF] |1 .A,,.[A,CG].[A,CG].[A,CG] | .D,.[A,DF].[A,DF].[A,DF] | %65
 .E,.[B,DE].[B,DE].[B,DE] | .A,,.[A,CE].[A,CE].[A,CE] :|2 ([A,C]4 | [_B,D]4 | [B,^D]4 | [CE]4) || %71
 ([E,A,C]4 | [^E,_B,D]4 | [F,B,^D]4 | .[G,CE]).A,, .[A,CE].A,, | .[A,CE].A,, .[A,CE].A,, | %76
 .[A,CE].A,, .[A,CE].A,, |: .[D,,D,].[F,A,] .A,,.[F,A,] | .[E,,E,].[G,A,] .A,,.[G,A,] | %79
 .[D,,D,].[F,A,] .A,,.[F,A,] | .[D,,D,].[F,A,] .A,,.[F,A,] | .[E,,E,].[G,A,] .A,,.[G,A,] | %82
 .[C,,C,].[G,A,] .A,,.[G,A,] | .[D,,D,].[F,A,] .A,,.[F,A,] | %84
 .[A,,,A,,].[A,,,A,,] .[B,,,B,,].[C,,C,] | .[D,,D,].[F,A,] .A,,.[F,A,] | %86
 .[E,,E,].[G,A,] .A,,.[G,A,] | .[D,,D,].[F,A,] .A,,.[F,A,] | .[D,,D,].[F,A,] .A,,.[F,A,] | %89
 .[E,,E,].[G,A,] .A,,.[G,A,] | .[C,,C,].[G,A,] .A,,.[G,A,] | .[D,,D,].[F,A,] .[A,,,A,,].[E,G,A,] |1 %92
 .[D,,D,].[F,A,] .[D,,D,].[F,A,] :|2 .[D,F,A,] z z2 || z4 | .[A,,A,] z z2 | z4 | .[A,,,A,,] z z2 | %98
 z4 |[K:treble]{/B} .A z{/B} .A z |{/B} .A z{/B} .A z | .[Aa] z .[Aa] z | .[Aa] z .[Aa] z |: %103
[K:bass] .A,,.[A,CG].[A,CG].[A,CG] | .D,.[A,DF].[A,DF].[A,DF] | .G,,.[B,DG].[B,DG].[B,DG] | %106
 .D,.[A,DF].[A,DF].[A,DF] | .A,,.[A,CG].[A,CG].[A,CG] | .D,.[A,DF].[A,DF].[A,DF] |1 %109
 .E,.[B,DE].[B,DE].[B,DE] | .A,,.[A,CE].[A,CE].[A,CE] :|2 .A,,.[A,CG] .A,,.[A,CG] | %112
 .D,.[A,DF] .[A,DF] z |: !>![F,F]2 !>![D,D]2 | !>![B,,B,]2 !>![A,,A,]2 | %115
 .A,,.[A,CG].[A,CG].[A,CG] | .D,.[A,DF] .[A,DF] z | !>![F,F]2 !>![D,D]2 | !>![B,,B,]2 !>![A,,A,]2 | %119
 .A,,.[A,CG].[A,CG].[A,CG] |1 .D,.[A,DF] .[A,DF] z :|2 (D,.D) (A,,.A,) || (D,.D) (A,,.A,) | %123
 (D,.D) (A,,.A,) | (D,.D) (A,,.A,) | .[D,D]>[D,D] .[D,D]>[D,D] | .[D,D]>[D,D] .[D,D]>[D,D] | %127
 .[D,D]>[D,D] .[D,D]>[D,D] | .[D,D] z !>![D,,D,]2 |:[K:G] .[G,,G,].[B,D] .[D,,D,].[B,D] | %130
 .[A,,A,].[CD] .[D,,D,].[CD] | .[G,,G,].[B,D] .[D,,D,].[B,D] | .[G,,G,].[B,D] .[D,,D,].[B,D] | %133
 .[A,,A,].[CD] .[D,,D,].[CD] | .[F,,F,].[CD] .[D,,D,].[CD] | .[G,,G,].[B,D] .[D,,D,].[B,D] | %136
 .[D,,D,].[D,,D,] .[E,,E,].[F,,F,] | .[G,,G,].[B,D] .[D,,D,].[B,D] | .[A,,A,].[CD] .[D,,D,].[CD] | %139
 .[G,,G,].[B,D] .[D,,D,].[B,D] | .[G,,G,].[B,D] .[D,,D,].[B,D] | .[A,,A,].[CD] .[D,,D,].[CD] | %142
 .[F,,F,].[CD] .[D,,D,].[CD] | .[G,,G,].[B,D] .[D,,D,].[A,CD] |1 .[G,B,D] z !>![D,,D,]2 :|2 %145
 .[G,B,D] z !>![G,,,G,,] z |:[K:D] .A,,.[A,CG].[A,CG].[A,CG] | .D,.[A,DF].[A,DF].[A,DF] | %148
 .G,,.[B,DG].[B,DG].[B,DG] | .D,.[A,DF].[A,DF].[A,DF] |1 .A,,.[A,CG].[A,CG].[A,CG] | %151
 .D,.[A,DF].[A,DF].[A,DF] | .E,.[B,DE].[B,DE].[B,DE] | .A,,.[A,CE].[A,CE].[A,CE] :| ([E,A,C]4 | %155
 [^E,_B,D]4 | [F,B,^D]4 | [G,CE]4) | ([C,E,A,C]4 | [D,^E,_B,D]4 | [^D,F,B,^D]4 | %161
 .[E,G,CE]).A,, .[E,A,CE].A,, | .[E,A,CE].A,, .[E,A,CE].A,, | .[E,A,CE].A,, .[E,A,CE].A,, |: %164
 .[D,,D,].[F,A,D] .[A,,,A,,].[F,A,D] | .[E,,E,].[G,A,C] .[A,,,A,,].[G,A,C] | %166
 .[D,,D,].[F,A,D] .[A,,,A,,].[F,A,D] | .[D,,D,].[F,A,D] .[A,,,A,,].[F,A,D] | %168
 .[E,,E,].[G,A,C] .[A,,,A,,].[G,A,C] | .[C,,C,].[G,A,C] .[A,,,A,,].[G,A,C] | %170
 .[D,,D,].[F,A,D] .[A,,,A,,].[F,A,D] | .[A,,,A,,].[A,,,A,,] .[B,,,B,,].[C,,C,] | %172
 .[D,,D,].[F,A,D] .[A,,,A,,].[F,A,D] | .[E,,E,].[G,A,C] .[A,,,A,,].[G,A,C] | %174
 .[D,,D,].[F,A,D] .[A,,,A,,].[F,A,D] | .[D,,D,].[F,A,D] .[A,,,A,,].[F,A,D] | %176
 .[E,,E,].[G,A,C] .[A,,,A,,].[G,A,C] | .[C,,C,].[G,A,C] .[A,,,A,,].[G,A,C] |1 %178
 .[D,,D,].[F,A,D] .[A,,,A,,].[E,G,A,] | .[D,F,A,] z !>![A,,,A,,]2 :|2 [D,,D,] z !>![D,D]2 || %181
 !>![C,C]2 !>![=C,=C]2 | .[B,,B,].[B,,B,] .[G,,G,].[B,,B,] | .[A,,A,].[A,,A,] .[B,,B,].[C,C] | %184
 !>![D,,D,]2 !>![D,D]2 | !>![C,C]2 !>![=C,=C]2 | .[B,,B,].[B,,B,] .[G,,G,].[B,,B,] | %187
 .[A,,A,].[A,,A,] .[B,,B,].[C,C] | .[D,F,A,D].[A,,A,] .[E,G,A,C].[A,,A,] | %189
 .[D,F,A,D].[A,,A,] .[E,G,A,C].[A,,A,] | .[D,F,A,D].[A,,A,] .[E,G,A,C].[A,,A,] | %191
 .[D,F,A,D].[A,,A,] .[E,G,A,C].[A,,A,] | .[D,F,A,D].[A,,A,] .[E,G,A,C].[A,,A,] | %193
 .[D,F,A,D].[A,,A,] .[E,G,A,C].[A,,A,] | .[D,F,A,D].[A,,A,] .[E,G,A,C].[A,,A,] | %195
 .[D,F,A,D].[A,,A,] .[E,G,A,C].[A,,A,] | .[D,F,A,D] z !>![D,D]2 | !>![C,C]2 !>![B,,B,]2 | %198
 !>![A,,A,]2 !>![G,,G,]2 | !>![F,,F,]2 !>![E,,E,]2 | !>![D,,D,]2 !>![D,D]2 | %201
 !>![C,C]2 !>![B,,B,]2 | !>![A,,A,]2 !>![G,,G,]2 | !>![F,,F,]2 !>![E,,E,]2 | %204
 .[D,,D,]>[D,,D,] .[D,,D,]>[D,,D,] | .[D,,D,]>[D,,D,] .[D,,D,]>[D,,D,] | !>![D,,D,] z z2 | %207
 !>![D,F,A,D] z z2 | !>![D,F,A,D] z z2 | !>![D,F,A,D] z z2 | !///-!D,2 D,,2 | !///-!D,2 D,,2 | %212
 !>![D,,D,] z z2 |] %213
V:3
 x | x4 | x4 | x4 | x4 | x4 | x4 | x4 | x4 | x4 | x4 | x4 | x4 | x4 | x4 | x4 |:[K:bass] x4 | x4 | %18
 x4 | x4 | x4 | x4 |1 x4 | x4 :|2 x4 | x4 |: x4 | x4 | x4 | x4 | x4 | x4 | x4 |1 x4 :|2 x4 || x4 | %36
 x4 | x4 | x4 | x4 | x4 | x4 |:[K:G] x4 | x4 | x4 | x4 | x4 | x4 | x4 | x4 | x4 | x4 | x4 | x4 | %54
 x4 | x4 | x4 |1 x4 :|2 x4 |:[K:D] x4 | x4 | x4 | x4 |1 x4 | x4 | x4 | x4 :|2 z A,, A,,A,, | %68
 z A,, A,,A,, | z A,, A,,A,, | z A,, A,,A,, || z A,, A,,A,, | z A,, A,,A,, | z A,, A,,A,, | x4 | %75
 x4 | x4 |: x4 | x4 | x4 | x4 | x4 | x4 | x4 | x4 | x4 | x4 | x4 | x4 | x4 | x4 | x4 |1 x4 :|2 %93
 x4 || x4 | x4 | x4 | x4 | x4 |[K:treble] x4 | x4 | x4 | x4 |:[K:bass] x4 | x4 | x4 | x4 | x4 | %108
 x4 |1 x4 | x4 :|2 x4 | x4 |: x4 | x4 | x4 | x4 | x4 | x4 | x4 |1 x4 :|2 x4 || x4 | x4 | x4 | x4 | %126
 x4 | x4 | x4 |:[K:G] x4 | x4 | x4 | x4 | x4 | x4 | x4 | x4 | x4 | x4 | x4 | x4 | x4 | x4 | x4 |1 %144
 x4 :|2 x4 |:[K:D] x4 | x4 | x4 | x4 |1 x4 | x4 | x4 | x4 :| z [A,,,A,,] [A,,,A,,][A,,,A,,] | %155
 z [A,,,A,,] [A,,,A,,][A,,,A,,] | z [A,,,A,,] [A,,,A,,][A,,,A,,] | z [A,,,A,,] [A,,,A,,][A,,,A,,] | %158
 z [A,,,A,,] [A,,,A,,][A,,,A,,] | z [A,,,A,,] [A,,,A,,][A,,,A,,] | z [A,,,A,,] [A,,,A,,][A,,,A,,] | %161
 x4 | x4 | x4 |: x4 | x4 | x4 | x4 | x4 | x4 | x4 | x4 | x4 | x4 | x4 | x4 | x4 | x4 |1 x4 | x4 :|2 %180
 x4 || x4 | x4 | x4 | x4 | x4 | x4 | x4 | x4 | x4 | x4 | x4 | x4 | x4 | x4 | x4 | x4 | x4 | x4 | %199
 x4 | x4 | x4 | x4 | x4 | x4 | x4 | x4 | x4 | x4 | x4 | x4 | x4 | x4 |] %213
V:4
 x | x4 |!8va(! x4 | x2!8va)! x2 | x4 | x4 |!8va(! x4 | x4 | x4 | x4 | x4 | x4 | x4 | x4 | x4 | %15
 x4!8va)! |: x4 | x4 | x4 | x4 | x4 | x4 |1 x4 | x4 :|2 x4 | x4 |: x4 | x4 | x4 | x4 | x4 | x4 | %32
 x4 |1 x4 :|2 x4 || x4 | x4 | x4 | x4 | x4 | x4 | x4 |:[K:G] x4 | x4 | x4 | x4 | x4 | x4 | x4 | %49
 x4 | x4 | x4 | x4 | x4 | x4 | x4 | x4 |1 x4 :|2 x4 |:[K:D] x4 | x4 | x4 | x4 |1 x4 | x4 | x4 | %66
 x4 :|2 x4 | x4 | x4 | x4 || x4 | x4 | x4 | x4 | x4 | x4 |: x4 | x4 | x4 | x4 | x4 | x4 | x4 | x4 | %85
 x4 | x4 | x4 | x4 | x4 | x4 | x4 |1 x4 :|2 x4 ||!8va(! x4 | x4 | x4 | x4 | x4 | x4 | x4 | x4 | %102
 x4!8va)! |: x4 | x4 | x4 | x4 | x4 | x4 |1 x4 | x4 :|2 x4 | x4 |: x4 | x4 | x4 | x4 | x4 | x4 | %119
 x4 |1 x4 :|2 x4 || x4 | x4 | x4 | x4 | x4 | x4 | x!8va(! x3!8va)! |:[K:G] z/ g/b/d'/ g'/d'/b/g/ | %130
 x4 | z/ g/b/g/ z/ g/b/g/ | x4 | z/ d/f/d/ z/ d/f/d/ | x4 | x4 | x4 | z/ g/b/d'/ g'/d'/b/g/ | x4 | %139
 z/ g/b/g/ z/ g/b/g/ | x4 | z/ d/f/d/ z/ d/f/d/ | x4 | x4 |1 x!8va(! x3!8va)! :|2 %145
 x!8va(! x3!8va)! |:[K:D] x4 | x4 | x4 | x4 |1 x4 | x4 | x4 | x4 :| x4 | x4 | x4 | x4 | x4 | x4 | %160
 x4 | x4 | x4 | x4 |: z/ d/f/a/ d'/a/f/d/ | x4 | z/ d/f/d/ z/ d/f/d/ | x4 | z/ A/c/A/ z/ A/c/A/ | %169
 x4 | x4 | x4 | z/ d/f/a/ d'/a/f/d/ | x4 | z/ d/f/d/ z/ d/f/d/ | x4 | z/ A/c/A/ z/ A/c/A/ | x4 |1 %178
 x4 | x!8va(! x3!8va)! :|2 z/ F/A/F/ z/ f/a/f/ || z/ a/c'/a/ z/ a/=c'/a/ | x4 | x4 | %184
 z/ f/a/f/ z/ f/a/f/ | z/ a/c'/a/ z/ a/=c'/a/ | x4 | x4 | x4 | x4 | x4 | x4 | x4 | x4 | x4 | x4 | %196
 x4 | x4 | x4 | x4 | x4 | x4 | x4 | x4 | x4 | x4 | x4 | x4 | x4 | x4 | x4 | x4 | x4 |] %213

